svg/network_pos.svg

<svg xmlns="http://www.w3.org/2000/svg" viewBox="0 0 24 24"><path d="M17 9H8V7h9zM7 7H5v2h2zm0-3H5v2h2zm3 0H8v2h2zm3 13v2h1c.55 0 1 .45 1 1h7v2h-7c0 .55-.45 1-1 1h-4c-.55 0-1-.45-1-1H2v-2h7c0-.55.45-1 1-1h1v-2H4c-1.11 0-2-.89-2-2V3a2 2 0 0 1 2-2h16c1.11 0 2 .89 2 2v12c0 1.11-.89 2-2 2zm7-2V3H4v12zm-9-9h8V4h-8zm-6 6h6v-2H5zm8 2h6v-2h-6z"/></svg>

<svg xmlns="http://www.w3.org/2000/svg" id="mdi-network-pos" viewBox="0 0 24 24"><path d="M17 9H8V7H17V9M7 7H5V9H7V7M7 4H5V6H7V4M10 4H8V6H10V4M13 17V19H14C14.55 19 15 19.45 15 20H22V22H15C15 22.55 14.55 23 14 23H10C9.45 23 9 22.55 9 22H2V20H9C9 19.45 9.45 19 10 19H11V17H4C2.89 17 2 16.11 2 15L2 3C2 1.89 2.9 1 4 1H20C21.11 1 22 1.89 22 3L22 15C22 16.11 21.11 17 20 17H13M20 15V3H4V15L20 15M11 6H19V4H11V6M5 12H11V10H5V12M13 14H19V12H13V14Z" /></svg>
